X:1
T:Miss Susan Cooper
C:Ronnie Cooper
R:reel
B:Da Mirrie Dancers: a book of Shetland Tunes
B:edited by Tom Anderson and Tom Georgeson
B:Shetland Folk Society, 1970, 1985, isbn 0-948276-02-9
Z:Tom Keays
M:4/4
L:1/8
K:D
(3ABc|dfed B2 dB|A2 FA DAFA|ABde fa^ga|g2 fd eAce|
dfed B2 dB|A2 FA DAFA|ABde fafd|eAce d2:|
dB|Bcde fBBB|def^g a2 gf|eAce a2 ^ga|g2 fd eAce|
dfed B2 dB|A2 FA DAFA|ABde fafd|eAce d2:|
</abc>
